X:1
T:Tröstet mein Volk
T:Christian Palmer (1811 -1875)
T:Tröstet mein Volk
T:CPDL - Creative Commons Attribution Non Commercial 3.0
T:CPDL - Creative Commons Attribution Non Commercial 3.0
T:CPDL - Creative Commons Attribution Non Commercial 3.0
C:Christian Palmer
Z:CPDL - Creative Commons Attribution Non Commercial 3.0
%%score [ 1 2 3 4 ]
L:1/8
Q:1/4=120
M:4/4
K:Eb
V:1 treble nm="S"
V:2 treble nm="A"
V:3 treble-8 nm="T"
V:4 bass nm="B"
V:1
!p!"^Poco adagio" G3 A B2 z2 | A3 G F2 z2 | E4 F2 F2 | G6 z2 | (c2 e2) d2 c2 | B4 cB AG | %6
w: Trös- * tet|Trös- * tet|Trös- tet mein|Volk!|Trös- * tet mein|Volk, spricht _ der _|
!>(! F4 A2 G2!>)! | F6 z2 |!p! G3 A B2 z2 | !>!A3 G F2 z2 |!mf! E4!<(! F2 F2!<)! |!>(! G6!>)! z2 | %12
w: Herr, eu- er|Gott!|Trös- * tet|Trös- * tet|Trös- tet mein|Volk!|
!mf! G4 =A2 A2 | B4!<(! c2 c2!<)! |!f! d6 d2 | (e2 c2)!>(! B2 =A2!>)! | B4 z2 B>c | (B3 A) A2 A>B | %18
w: Trös- tet mein|Volk, spricht der|Herr, der|Herr, _ eu- er|Gott! Re- det|freund- * lich mit Je-|
 A3 G G2 z2 | z8 | z8 |!mf! G4!<(! A2 B2!<)! | c6 B2 | B2 A2!>(! G2 A2!>)! | F6 z2 | %25
w: ru- sa- lem,|||Sa- get der|Toch- ter|Zi- * * *|on:|
!p! (e2 d2) c2 B2 | B6 B2 | (e2 d2) (c2 B2) | B6 B2 |!<(! B4 c2 _d2!<)! | c2 e2 c2 A2 | %31
w: Sie- * he, dein|Kö- nig|kommt _ zu _|dir, zu|dir _ _|sanft- * * *|
!>(! G4 F4!>)! | G6 z2 |!f! (!>!e2 d2) c2 B2 | B4 B4 | (e2 d2) (c2 B2) | B6 B2 | %37
w: mü- *|tig,|sie- * he, dein|Kö- nig|kommt _ zu _|dir, zu|
!<(! B4 c2 _d2!<)! | c2 e2 c2 A2 | G8 |!>(! F8!>)! | !fermata!E8 |] %42
w: dir _ _|sanft _ _ _|mü-||tig.|
V:2
!p! E3 F G2 z2 | F3 E D2 z2 | E4 D2 D2 | E6 z2 | (A2 c2) B2 A2 | G4 AG FE |!>(! D4 F2 E2!>)! | %7
w: |||||||
 D6 z2 |!p! E3 F G2 z2 | !>!F3 E D2 z2 |!mf! (C2 E2)!<(! E2 D2!<)! |!>(! D6!>)! z2 |!mf! E4 F2 F2 | %13
w: ||||||
 F4!<(! G2 G2!<)! |!f! F6 F2 | F4!>(! F2 F2!>)! | F4 z2 G>A | (G3 F) F2 F>G | F3 E E2 z2 | z8 | %20
w: |||||||
 z8 |!mf! E4!<(! E2 E2!<)! | E6 E2 | F4!>(! E4!>)! | D6 z2 | z8 |!p! (F2 D2) E2 F2 | G4 E4 | %28
w: |Sa- get der|Toch- ter|Zi- *|on:||Sie- * he, dein|Kö- nig|
 (F2 D2 E2) F2 |!<(! E8!<)! | E2 C2 E2 F2 |!>(! E4 D4!>)! | E6 z2 |!f! (!>!G2 B2) A2 G2 | %34
w: kommt _ _ zu|dir|sanft- * * *|mü- *|tig,||
 (F2 D2) (E2 F2) | (G2 B2) (A2 G2) | (F2 D2 E2) F2 |!<(! E8!<)! | E2 C2 E2 F2 | E8- | %40
w: |kommt _ zu _|dir, _ _ zu|dir|sanft _ _ _|mü-|
!>(! E2 D2 C2 D2!>)! | !fermata!E8 |] %42
w: |tig.|
V:3
 z8 | z8 | z8 | z8 | z8 | z8 | z8 | z8 |!p! B3 e e2 z2 | !>!d3 e B2 z2 |!mf! G4!<(! c2 c2!<)! | %11
w: ||||||||Trös- * tet|Trös- * tet|Trös- tet mein|
!>(! =B6!>)! z2 |!mf! c4 c2 c2 | B4!<(! B2 B2!<)! |!f! B6 B2 | (=A2 c2)!>(! d2 e2!>)! | d4 z4 | %17
w: Volk!|Trös- tet mein|Volk, spricht der|Herr, der|Herr, _ eu- er|Gott!|
 z8 | z4 z2 B>c | (B3 A) A2 A>B | A3 G G2 z2 |!mf! E4!<(! F2 G2!<)! | A6 G2 | B6!>(! c2!>)! | %24
w: |Re- det|freund- * lich mit Je-|ru- sa- lem!|Sa- get der|Toch- ter|Zi- *|
 B6 z2 | z8 |!p! (B2 A2) G2 F2 | E4 G4 | (B2 A2 G2) F2 |!<(! G4 A2 B2!<)! | A6 c2 |!>(! B8!>)! | %32
w: on:||Sie- * he, dein|Kö- nig|kommt _ _ zu|dir _ _|sanft- *|mü-|
 B6 z2 | z8 |!f! (B2 A2) G2 F2 | E4 e4 | (B2 A2 G2) F2 |!<(! G4 A2 B2!<)! | A6 c2 | B8- | %40
w: tig,||sie- * he, dein|Kö- nig|kommt _ _ zu|dir _ _|sanft- *|mü-|
!>(! B6 A2!>)! | !fermata!G8 |] %42
w: |tig.|
V:4
 z8 | z8 | z8 | z8 | z8 | z8 | z8 | z8 |!p! E,4 E,2 z2 | !>!B,,4 B,,2 z2 | %10
!mf! C,4!<(! A,,2 A,,2!<)! |!>(! G,,6!>)! z2 |!mf! C,4 F,2 E,2 | D,4!<(! E,2 E,2!<)! | %14
!f! (F,4 D,2) B,,2 | F,4!>(! F,2 F,2!>)! | B,,4 z4 | z8 | z4 z2 G,>A, | (G,3 F,) F,2 F,>G, | %20
 F,3 E, E,2 z2 |!mf! E,4!<(! E,2 E,2!<)! | E,6 E,2 | D,4!>(! E,2 A,,2!>)! | B,,6 z2 | z8 | %26
!p! (D,2 F,2) E,2 D,2 | E,4 E,4 | (D,2 F,2 E,2) D,2 |!<(! E,8!<)! | A,,8 |!>(! B,,8!>)! | E,6 z2 | %33
 z8 |!f! (D,2 F,2) E,2 D,2 | E,4 E,4 | (D,2 F,2 E,2) D,2 |!<(! E,8!<)! | A,,8 | B,,8- | %40
!>(! B,,8!>)! | !fermata!E,8 |] %42

